svgs/duotone/face-laugh-beam.svg

<svg xmlns="http://www.w3.org/2000/svg" viewBox="0 0 512 512"><!--! Font Awesome Pro 6.4.2 by @fontawesome - https://fontawesome.com License - https://fontawesome.com/license (Commercial License) Copyright 2023 Fonticons, Inc. --><path class="fa-primary" style="fill:var(--fa-primary-color,inherit);opacity:var(--fa-primary-opacity,1);" d="M217.6 212.8l0 0 0 0 0 0c2.1 2.8 5.7 3.9 8.9 2.8s5.5-4.1 5.5-7.6c0-17.9-6.7-35.6-16.6-48.8c-9.8-13-23.9-23.2-39.4-23.2s-29.6 10.2-39.4 23.2C126.7 172.4 120 190.1 120 208c0 3.4 2.2 6.5 5.5 7.6s6.9 0 8.9-2.8l0 0 0 0 0 0 .2-.2c.2-.2 .4-.5 .7-.9c.6-.8 1.6-2 2.8-3.4c2.5-2.8 6-6.6 10.2-10.3c8.8-7.8 18.8-14 27.7-14s18.9 6.2 27.7 14c4.2 3.7 7.7 7.5 10.2 10.3c1.2 1.4 2.2 2.6 2.8 3.4c.3 .4 .6 .7 .7 .9l.2 .2 0 0zm160 0l0 0 0 0 0 0c2.1 2.8 5.7 3.9 8.9 2.8s5.5-4.1 5.5-7.6c0-17.9-6.7-35.6-16.6-48.8c-9.8-13-23.9-23.2-39.4-23.2s-29.6 10.2-39.4 23.2C286.7 172.4 280 190.1 280 208c0 3.4 2.2 6.5 5.5 7.6s6.9 0 8.9-2.8l0 0 0 0 0 0 .2-.2c.2-.2 .4-.5 .7-.9c.6-.8 1.6-2 2.8-3.4c2.5-2.8 6-6.6 10.2-10.3c8.8-7.8 18.8-14 27.7-14s18.9 6.2 27.7 14c4.2 3.7 7.7 7.5 10.2 10.3c1.2 1.4 2.2 2.6 2.8 3.4c.3 .4 .6 .7 .7 .9l.2 .2 0 0z"/><path class="fa-secondary" style="fill:var(--fa-secondary-color,inherit);opacity:var(--fa-secondary-opacity,.4);" d="M256 512A256 256 0 1 0 256 0a256 256 0 1 0 0 512zM96.8 314.1c-3.8-13.7 7.4-26.1 21.6-26.1H393.6c14.2 0 25.5 12.4 21.6 26.1C396.2 382 332.1 432 256 432s-140.2-50-159.2-117.9zM217.6 212.8l0 0 0 0-.2-.2c-.2-.2-.4-.5-.7-.9c-.6-.8-1.6-2-2.8-3.4c-2.5-2.8-6-6.6-10.2-10.3c-8.8-7.8-18.8-14-27.7-14s-18.9 6.2-27.7 14c-4.2 3.7-7.7 7.5-10.2 10.3c-1.2 1.4-2.2 2.6-2.8 3.4c-.3 .4-.6 .7-.7 .9l-.2 .2 0 0 0 0 0 0c-2.1 2.8-5.7 3.9-8.9 2.8s-5.5-4.1-5.5-7.6c0-17.9 6.7-35.6 16.6-48.8c9.8-13 23.9-23.2 39.4-23.2s29.6 10.2 39.4 23.2c9.9 13.2 16.6 30.9 16.6 48.8c0 3.4-2.2 6.5-5.5 7.6s-6.9 0-8.9-2.8l0 0 0 0zm160 0l0 0-.2-.2c-.2-.2-.4-.5-.7-.9c-.6-.8-1.6-2-2.8-3.4c-2.5-2.8-6-6.6-10.2-10.3c-8.8-7.8-18.8-14-27.7-14s-18.9 6.2-27.7 14c-4.2 3.7-7.7 7.5-10.2 10.3c-1.2 1.4-2.2 2.6-2.8 3.4c-.3 .4-.6 .7-.7 .9l-.2 .2 0 0 0 0 0 0c-2.1 2.8-5.7 3.9-8.9 2.8s-5.5-4.1-5.5-7.6c0-17.9 6.7-35.6 16.6-48.8c9.8-13 23.9-23.2 39.4-23.2s29.6 10.2 39.4 23.2c9.9 13.2 16.6 30.9 16.6 48.8c0 3.4-2.2 6.5-5.5 7.6s-6.9 0-8.9-2.8l0 0 0 0 0 0z"/></svg>

<svg xmlns="http://www.w3.org/2000/svg" viewBox="0 0 512 512"><!--! Font Awesome Pro 6.1.1 by @fontawesome - https://fontawesome.com License - https://fontawesome.com/license (Commercial License) Copyright 2022 Fonticons, Inc. --><defs><style>.fa-secondary{opacity:.4}</style></defs><path class="fa-primary" d="M217.6 212.8L217.4 212.5C217.2 212.3 217 212 216.7 211.6C216 210.8 215.1 209.7 213.9 208.3C211.4 205.4 207.9 201.7 203.7 197.1C194.9 190.2 184.8 184 176 184C167.2 184 157.1 190.2 148.3 197.1C144.1 201.7 140.6 205.4 138.1 208.3C136.9 209.7 135.1 210.8 135.3 211.6C134.1 212 134.8 212.3 134.6 212.5L134.4 212.8L134.4 212.8C132.3 215.6 128.7 216.7 125.5 215.6C122.2 214.5 120 211.4 120 208C120 190.1 126.7 172.4 136.6 159.2C146.4 146.2 160.5 136 176 136C191.5 136 205.6 146.2 215.4 159.2C225.3 172.4 232 190.1 232 208C232 211.4 229.8 214.5 226.5 215.6C223.3 216.7 219.7 215.6 217.6 212.8L217.6 212.8zM377.6 212.8L377.4 212.5C377.2 212.3 377 212 376.7 211.6C376 210.8 375.1 209.7 373.9 208.3C371.4 205.4 367.9 201.7 363.7 197.1C354.9 190.2 344.8 184 336 184C327.2 184 317.1 190.2 308.3 197.1C304.1 201.7 300.6 205.4 298.1 208.3C296.9 209.7 295.1 210.8 295.3 211.6C294.1 212 294.8 212.3 294.6 212.5L294.4 212.8L294.4 212.8C292.3 215.6 288.7 216.7 285.5 215.6C282.2 214.5 280 211.4 280 208C280 190.1 286.7 172.4 296.6 159.2C306.4 146.2 320.5 136 336 136C351.5 136 365.6 146.2 375.4 159.2C385.3 172.4 392 190.1 392 208C392 211.4 389.8 214.5 386.5 215.6C383.3 216.7 379.7 215.6 377.6 212.8L377.6 212.8z"/><path class="fa-secondary" d="M0 256C0 114.6 114.6 0 256 0C397.4 0 512 114.6 512 256C512 397.4 397.4 512 256 512C114.6 512 0 397.4 0 256zM256 432C332.1 432 396.2 382 415.2 314.1C419.1 300.4 407.8 288 393.6 288H118.4C104.2 288 92.92 300.4 96.76 314.1C115.8 382 179.9 432 256 432V432zM226.5 215.6C229.8 214.5 232 211.4 232 208C232 190.1 225.3 172.4 215.4 159.2C205.6 146.2 191.5 136 176 136C160.5 136 146.4 146.2 136.6 159.2C126.7 172.4 120 190.1 120 208C120 211.4 122.2 214.5 125.5 215.6C128.7 216.7 132.3 215.6 134.4 212.8L134.4 212.8L134.6 212.5C134.8 212.3 134.1 212 135.3 211.6C135.1 210.8 136.9 209.7 138.1 208.3C140.6 205.4 144.1 201.7 148.3 197.1C157.1 190.2 167.2 184 176 184C184.8 184 194.9 190.2 203.7 197.1C207.9 201.7 211.4 205.4 213.9 208.3C215.1 209.7 216 210.8 216.7 211.6C217 212 217.2 212.3 217.4 212.5L217.6 212.8L217.6 212.8C219.7 215.6 223.3 216.7 226.5 215.6V215.6zM377.6 212.8C379.7 215.6 383.3 216.7 386.5 215.6C389.8 214.5 392 211.4 392 208C392 190.1 385.3 172.4 375.4 159.2C365.6 146.2 351.5 136 336 136C320.5 136 306.4 146.2 296.6 159.2C286.7 172.4 280 190.1 280 208C280 211.4 282.2 214.5 285.5 215.6C288.7 216.7 292.3 215.6 294.4 212.8L294.4 212.8L294.6 212.5C294.8 212.3 294.1 212 295.3 211.6C295.1 210.8 296.9 209.7 298.1 208.3C300.6 205.4 304.1 201.7 308.3 197.1C317.1 190.2 327.2 184 336 184C344.8 184 354.9 190.2 363.7 197.1C367.9 201.7 371.4 205.4 373.9 208.3C375.1 209.7 376 210.8 376.7 211.6C377 212 377.2 212.3 377.4 212.5L377.6 212.8L377.6 212.8z"/></svg>
